front/public/static/landing/logos/gray/malt.svg

<svg fill="none" height="240" viewBox="0 0 600 240" width="600" xmlns="http://www.w3.org/2000/svg"><g fill="#364153"><path d="m210.4 97.3278c-5.945-5.9457-12.296-2.0974-16.271 1.8773l-18.773 18.7739-18.774 18.774c-3.975 3.974-8.135 10.013-1.878 16.27 6.258 6.258 12.297 2.097 16.27-1.877l18.774-18.774 18.774-18.773c3.975-3.975 7.823-10.326 1.878-16.2712z"/><path d="m174.53 95.7889 7.95 7.9501 8.093-8.0926c.549-.5508 1.107-1.0617 1.668-1.5438-.847-4.2757-3.287-8.1412-9.765-8.1412-6.49 0-8.926 3.8808-9.769 8.1658.606.524 1.211 1.0495 1.823 1.6617z"/><path d="m190.57 154.846-8.087-8.088-7.947 7.946c-.603.604-1.204 1.155-1.802 1.673.912 4.359 3.49 8.351 9.745 8.351 6.271 0 8.847-4.013 9.752-8.386-.556-.478-1.113-.948-1.661-1.496z"/><path d="m171.156 115.064h-15.327c-5.621 0-12.833 1.77-12.833 10.178 0 6.273 4.015 8.849 8.389 9.753.517-.597 19.771-19.931 19.771-19.931z"/><path d="m213.6 115.472c-.486.564-19.78 19.947-19.78 19.947h15.11c5.621 0 12.833-1.328 12.833-10.178 0-6.489-3.879-8.927-8.163-9.769z"/><path d="m176.179 110.033 2.738-2.738-7.945-7.9467c-3.975-3.9744-10.013-8.1348-16.271-1.8773-4.588 4.588-3.569 9.054-1.135 12.68.741-.055 22.613-.118 22.613-.118z"/><path d="m188.777 140.45-2.746 2.745 8.094 8.093c3.974 3.975 10.325 7.822 16.27 1.878 4.436-4.437 3.418-9.096.966-12.829-.79.057-22.584.113-22.584.113z"/><path d="m379.388 99.147c-1.358 0-3.732.3396-6.336 1.471-3.393 1.471-5.204 2.602-6.108 4.072-3.395-3.959-7.807-5.2034-12.785-5.2034-14.595 0-25.003 12.3314-25.003 29.8674 0 14.707 7.919 25.568 19.12 25.568 3.393 0 6.448-1.358 10.069-4.751 2.828-2.603 4.186-4.299 4.186-5.883 0-1.132-.792-1.924-1.924-1.924-1.584 0-3.281 1.357-5.43 1.357-4.639 0-7.807-7.127-7.807-17.649 0-10.521 4.186-17.648 10.521-17.648 4.186 0 7.353 3.167 7.353 8.598v33.035c0 3.62 3.396 4.638 9.617 4.638 6.111 0 8.485-1.131 8.485-4.638v-47.289c0-2.263-1.469-3.621-3.958-3.621z"/><path d="m309.588 99.147c-4.413 0-9.051 1.584-13.125 4.752-2.262 1.81-4.186 3.846-4.186 5.544 0 1.47 1.018 2.262 2.489 2.262 2.49 0 3.282-1.018 5.658-1.018 2.375 0 3.507 2.263 3.507 6.222v33.149c0 3.62 3.394 4.638 9.616 4.638 6.109 0 8.485-1.131 8.485-4.638v-36.317c0-8.598-5.091-14.594-12.444-14.594z"/><path d="m277.794 99.147c-4.638 0-8.825 1.584-12.897 4.752-2.263 1.81-4.186 3.846-4.186 5.544 0 1.47 1.018 2.262 2.489 2.262 2.488 0 3.281-1.018 5.431-1.018s3.281 2.263 3.281 6.222v33.149c0 3.62 3.393 4.638 9.616 4.638 6.109 0 8.485-1.131 8.485-4.638v-36.317c0-8.598-5.092-14.594-12.219-14.594z"/><path d="m254.036 99.147c-1.696 0-3.733.3396-6.335 1.471-5.657 2.489-7.806 4.072-7.806 7.58v41.86c0 3.619 3.393 4.638 9.616 4.638 6.11 0 8.485-1.132 8.485-4.638v-47.29c0-2.263-1.47-3.621-3.96-3.621z"/><path d="m453.041 139.421c-4.527 1.131-5.885 1.471-7.47 1.471-1.92 0-2.6-.566-2.6-2.602v-28.284h10.297c2.712 0 3.731-1.018 3.731-3.733 0-2.262-1.019-3.395-3.731-3.395h-10.297v-10.9735c0-3.3945-1.131-4.7517-3.508-4.7517-2.262 0-5.432 2.0364-12.218 7.8067-6.901 5.8835-10.862 9.7295-10.862 12.4445 0 1.584 1.134 2.602 2.942 2.602h5.543v30.546c0 8.938 4.413 14.142 12.106 14.142 5.092 0 8.824-1.923 13.236-5.317 4.074-3.168 6.674-5.657 6.674-7.806.004-1.81-1.354-2.829-3.843-2.15z"/><path d="m407.223 75.2716c-.905 0-3.732.3393-6.336 1.471-5.658 2.3754-7.805 4.0722-7.805 7.5798v65.7306c0 3.621 3.393 4.639 9.617 4.639 6.108 0 8.482-1.131 8.482-4.639v-71.1609c0-2.2633-1.47-3.6205-3.958-3.6205z"/></g></svg>

<svg width="600" height="240" viewBox="0 0 600 240" fill="none" xmlns="http://www.w3.org/2000/svg">
<path d="M210.4 97.3278C204.455 91.3821 198.104 95.2304 194.129 99.2051L175.356 117.979L156.582 136.753C152.607 140.727 148.447 146.766 154.704 153.023C160.962 159.281 167.001 155.12 170.974 151.146L189.748 132.372L208.522 113.599C212.497 109.624 216.345 103.273 210.4 97.3278Z" fill="#364153"/>
<path d="M174.53 95.7889L182.48 103.739L190.573 95.6464C191.122 95.0956 191.68 94.5847 192.241 94.1026C191.394 89.8269 188.954 85.9614 182.476 85.9614C175.986 85.9614 173.55 89.8422 172.707 94.1272C173.313 94.6512 173.918 95.1767 174.53 95.7889Z" fill="#364153"/>
<path d="M190.57 154.846L182.483 146.758L174.536 154.704C173.933 155.308 173.332 155.859 172.734 156.377C173.646 160.736 176.224 164.728 182.479 164.728C188.75 164.728 191.326 160.715 192.231 156.342C191.675 155.864 191.118 155.394 190.57 154.846Z" fill="#364153"/>
<path d="M171.156 115.064H155.829C150.208 115.064 142.996 116.834 142.996 125.242C142.996 131.515 147.011 134.091 151.385 134.995C151.902 134.398 171.156 115.064 171.156 115.064Z" fill="#364153"/>
<path d="M213.6 115.472C213.114 116.036 193.82 135.419 193.82 135.419H208.93C214.551 135.419 221.763 134.091 221.763 125.241C221.763 118.752 217.884 116.314 213.6 115.472Z" fill="#364153"/>
<path d="M176.179 110.033L178.917 107.295L170.972 99.3483C166.997 95.3739 160.959 91.2135 154.701 97.471C150.113 102.059 151.132 106.525 153.566 110.151C154.307 110.096 176.179 110.033 176.179 110.033Z" fill="#364153"/>
<path d="M188.777 140.45L186.031 143.195L194.125 151.288C198.099 155.263 204.45 159.11 210.395 153.166C214.831 148.729 213.813 144.07 211.361 140.337C210.571 140.394 188.777 140.45 188.777 140.45Z" fill="#364153"/>
<path d="M379.388 99.147C378.03 99.147 375.656 99.4866 373.052 100.618C369.659 102.089 367.848 103.22 366.944 104.69C363.549 100.731 359.137 99.4866 354.159 99.4866C339.564 99.4866 329.156 111.818 329.156 129.354C329.156 144.061 337.075 154.922 348.276 154.922C351.669 154.922 354.724 153.564 358.345 150.171C361.173 147.568 362.531 145.872 362.531 144.288C362.531 143.156 361.739 142.364 360.607 142.364C359.023 142.364 357.326 143.721 355.177 143.721C350.538 143.721 347.37 136.594 347.37 126.072C347.37 115.551 351.556 108.424 357.891 108.424C362.077 108.424 365.244 111.591 365.244 117.022V150.057C365.244 153.677 368.64 154.695 374.861 154.695C380.972 154.695 383.346 153.564 383.346 150.057V102.768C383.346 100.505 381.877 99.147 379.388 99.147Z" fill="#364153"/>
<path d="M309.588 99.147C305.175 99.147 300.537 100.731 296.463 103.899C294.201 105.709 292.277 107.745 292.277 109.443C292.277 110.913 293.295 111.705 294.766 111.705C297.256 111.705 298.048 110.687 300.424 110.687C302.799 110.687 303.931 112.95 303.931 116.909V150.058C303.931 153.678 307.325 154.696 313.547 154.696C319.656 154.696 322.032 153.565 322.032 150.058V113.741C322.032 105.143 316.941 99.147 309.588 99.147Z" fill="#364153"/>
<path d="M277.794 99.147C273.156 99.147 268.969 100.731 264.897 103.899C262.634 105.709 260.711 107.745 260.711 109.443C260.711 110.913 261.729 111.705 263.2 111.705C265.688 111.705 266.481 110.687 268.631 110.687C270.781 110.687 271.912 112.95 271.912 116.909V150.058C271.912 153.678 275.305 154.696 281.528 154.696C287.637 154.696 290.013 153.565 290.013 150.058V113.741C290.013 105.143 284.921 99.147 277.794 99.147Z" fill="#364153"/>
<path d="M254.036 99.147C252.34 99.147 250.303 99.4866 247.701 100.618C242.044 103.107 239.895 104.69 239.895 108.198V150.058C239.895 153.677 243.288 154.696 249.511 154.696C255.621 154.696 257.996 153.564 257.996 150.058V102.768C257.996 100.505 256.526 99.147 254.036 99.147Z" fill="#364153"/>
<path d="M453.041 139.421C448.514 140.552 447.156 140.892 445.571 140.892C443.651 140.892 442.971 140.326 442.971 138.29V110.006H453.268C455.98 110.006 456.999 108.988 456.999 106.273C456.999 104.011 455.98 102.878 453.268 102.878H442.971V91.9045C442.971 88.51 441.84 87.1528 439.463 87.1528C437.201 87.1528 434.031 89.1892 427.245 94.9595C420.344 100.843 416.383 104.689 416.383 107.404C416.383 108.988 417.517 110.006 419.325 110.006H424.868V140.552C424.868 149.49 429.281 154.694 436.974 154.694C442.066 154.694 445.798 152.771 450.21 149.377C454.284 146.209 456.884 143.72 456.884 141.571C456.888 139.761 455.53 138.742 453.041 139.421Z" fill="#364153"/>
<path d="M407.223 75.2716C406.318 75.2716 403.491 75.6109 400.887 76.7426C395.229 79.118 393.082 80.8148 393.082 84.3224V150.053C393.082 153.674 396.475 154.692 402.699 154.692C408.807 154.692 411.181 153.561 411.181 150.053V78.8921C411.181 76.6288 409.711 75.2716 407.223 75.2716Z" fill="#364153"/>
</svg>
